dist/svgs/unicons/line/shopping-bag.svg

<svg xmlns="http://www.w3.org/2000/svg" viewBox="0 0 24 24"><path d="M19 7h-3V6a4 4 0 00-8 0v1H5a1 1 0 00-1 1v11a3 3 0 003 3h10a3 3 0 003-3V8a1 1 0 00-1-1zm-9-1a2 2 0 014 0v1h-4zm8 13a1 1 0 01-1 1H7a1 1 0 01-1-1V9h2v1a1 1 0 002 0V9h4v1a1 1 0 002 0V9h2z"/></svg>

<svg xmlns="http://www.w3.org/2000/svg" viewBox="0 0 24 24"><path d="M19,7H16V6A4,4,0,0,0,8,6V7H5A1,1,0,0,0,4,8V19a3,3,0,0,0,3,3H17a3,3,0,0,0,3-3V8A1,1,0,0,0,19,7ZM10,6a2,2,0,0,1,4,0V7H10Zm8,13a1,1,0,0,1-1,1H7a1,1,0,0,1-1-1V9H8v1a1,1,0,0,0,2,0V9h4v1a1,1,0,0,0,2,0V9h2Z"/></svg>
